X:110
T: Hao dao ge
N: C1604
O: China,Anhui, Hexian
S: III, 575]
R: Shange, Tiange]
M: 2/4
L: 1/16
K: Eb
B2Bcec2B | B2Bcec3 | B2GFB2c2 | B2cBBG3 |
G2GFG2B2 | Bcfdc2B2 | G4 | G8 |
B2c2c2Bc | c2d2B2B2 | c2fdc2B2 | cG3G2F2 | G3Bz4 |
e2cce2cG | B4c2cB | G2GFE2BG | F6B2- | B2G2F4- | F8

@@@ Tune index: 6665
